**kern	**kern
*part1	*part1
*staff2	*staff1
*I"Piano	*
*clefF4	*clefG2
*k[]	*k[]
=1	=1
!	!LO:TX:a:i:t=leggiero
4C	8r
.	8gL 8ee
4G 4c 4e	8ccJ 8gg
.	8r
=	=
4C	8r
.	8gL 8dd
4F 4G 4d	8bJ 8gg
.	8r
=	=
4C	8r
.	8aL 8ff
4F 4A 4d	8ddJ 8aa
.	8r
=	=
4C	8r
.	8ddL 8aa
4F 4A 4d	8ffJ 8ddd
.	8r
=	=
4C	8r
.	8aL 8ff
4F 4A 4d	8ddJ 8aa
.	8r
=	=
4C	8r
.	8gL 8ff
4F 4G 4d	8ddJ 8gg
.	8r
=	=
4C 4c	8r
.	8gL 8ee
4AA 4A	8r
.	8ccJ 8ee-X 8ff#X
=	=
*-	*-
!!!system-decoration: {(s1,s2)}
